material/.icons/material/trophy-broken.svg

<svg xmlns="http://www.w3.org/2000/svg" viewBox="0 0 24 24"><path d="M6.2 13c.4 1.8 1.4 3.3 3.8 3.8v2.54C8 20.12 8 22 8 22h5.2l-3-7 4-5-3.5-6H8c0-1-1.1-2-2-2H2v9c0 1 1 2 2 2h2.2M6 11H4V4h2v7m11.8 2H20c1 0 2-1 2-2V2h-4c-.9 0-2 1-2 2h-2.1l2.8 6-4.5 5 1 7H16s0-1.88-2-2.66v-2.49c2.39-.5 3.5-2.15 3.8-3.85m2.2-2h-2V4h2v7z"/></svg>

<?xml version="1.0" encoding="UTF-8"?><!DOCTYPE svg PUBLIC "-//W3C//DTD SVG 1.1//EN" "http://www.w3.org/Graphics/SVG/1.1/DTD/svg11.dtd"><svg xmlns="http://www.w3.org/2000/svg" xmlns:xlink="http://www.w3.org/1999/xlink" version="1.1" id="mdi-trophy-broken" width="24" height="24" viewBox="0 0 24 24"><path d="M6.2 13C6.6 14.8 7.6 16.3 10 16.8V19.34C8 20.12 8 22 8 22H13.2L10.2 15L14.2 10L10.7 4H8C8 3 6.9 2 6 2H2V11C2 12 3 13 4 13H6.2M6 11H4V4H6V11M17.8 13H20C21 13 22 12 22 11V2H18C17.1 2 16 3 16 4H13.9L16.7 10L12.2 15L13.2 22H16C16 22 16 20.12 14 19.34L14 16.85C16.39 16.35 17.5 14.7 17.8 13M20 11H18V4H20V11Z" /></svg>
